X: 1
T: Star Of Munster, The
Z: Jeremy
S: https://thesession.org/tunes/197#setting197
R: reel
M: 4/4
L: 1/8
K: Ador
|:c2Ac B2GB|AGEF GEDG|EAAB cBcd|eaaf gfed|
cBAc BAGB|AGEF GEDG|EAAB cded|cABG A4:|
|:eaab ageg|agbg agef|gfga gfef|gfaf gfdf|
eaab ageg|agbg agef|g2ge a2ga|bgaf geee:|

